X:1
L:1/8
Q:1/4=120
M:4/4
K:D
""^Lively"" A | FAAa Tf2 ed | BdAF =cEEA | FAAa faef | dBAF ADD :: A | FA A(B/c/) (d/c/B/A/) dF | 
 GBAF =cEEA | FA A(B/c/) (d/c/B/A/) dF | GEAF D/D/D D :: A | FAda face | dBAF =cEEA | FADg faec | 
 dBTAF ADD :: a | fa ab/c'/ d'afd | gbaf beea | fa a2 b/c'/ d'afd | BdTAF ADD :: A | FAdf FAdf | 
 FAdf eEEA | FAdf gbec | dBAF ADD :: a | dfad' dfad' | bd'af beea | dfad' baTfe | dBTAF ADD :|
